archdroid-icon-theme/Archdroid-Shamrock/status/scalable/appointment-missed.svg

<?xml version="1.0" encoding="UTF-8" standalone="no"?>
<svg
   xmlns:dc="http://purl.org/dc/elements/1.1/"
   xmlns:cc="http://creativecommons.org/ns#"
   xmlns:rdf="http://www.w3.org/1999/02/22-rdf-syntax-ns#"
   xmlns:svg="http://www.w3.org/2000/svg"
   xmlns="http://www.w3.org/2000/svg"
   xmlns:sodipodi="http://sodipodi.sourceforge.net/DTD/sodipodi-0.dtd"
   xmlns:inkscape="http://www.inkscape.org/namespaces/inkscape"
   fill="#00E676"
   width="48"
   height="48"
   viewBox="0 0 48 48"
   id="svg2"
   version="1.1"
   inkscape:version="0.91 r13725"
   sodipodi:docname="today.svg">
  <metadata
     id="metadata10">
    <rdf:RDF>
      <cc:Work
         rdf:about="">
        <dc:format>image/svg+xml</dc:format>
        <dc:type
           rdf:resource="http://purl.org/dc/dcmitype/StillImage" />
      </cc:Work>
    </rdf:RDF>
  </metadata>
  <defs
     id="defs8" />
  <sodipodi:namedview
     pagecolor="#ffffff"
     bordercolor="#666666"
     borderopacity="1"
     objecttolerance="10"
     gridtolerance="10"
     guidetolerance="10"
     inkscape:pageopacity="0"
     inkscape:pageshadow="2"
     inkscape:window-width="1366"
     inkscape:window-height="713"
     id="namedview6"
     showgrid="false"
     inkscape:snap-bbox="true"
     inkscape:bbox-nodes="true"
     inkscape:object-paths="true"
     inkscape:snap-intersection-paths="true"
     inkscape:object-nodes="true"
     inkscape:snap-smooth-nodes="true"
     inkscape:zoom="2.684000653874016"
     inkscape:cx="-20.08845818007025"
     inkscape:cy="-6.025795962837442"
     inkscape:window-x="0"
     inkscape:window-y="30"
     inkscape:window-maximized="1"
     inkscape:current-layer="svg2" />
  <path
     d="M 12 2 L 12 3.513671875 L 24.486328125 16 L 38 16 L 38 29.515625 L 42 33.515625 L 42 10 C 42 7.79 40.21 6.000000000000001 38 6 L 36 6 L 36 2 L 32 2 L 32 6 L 16 6 L 16 2 L 12 2 z M 8.978515625 6.150390625 C 7.272708883766469 6.60457270910968 6.019531249999999 8.146225876609515 6.01953125 10 L 6 38 C 6 40.21 7.790000000000001 42 10 42 L 38 42 C 39.85397752866344 42 41.39757290687332 40.73406737151211 41.8515625 39.0234375 L 38 35.171875 L 38 38 L 10 38 L 10 16 L 18.828125 16 L 8.978515625 6.150390625 z M 14 20 L 14 30 L 24 30 L 24 21.171875 L 22.828125 20 L 14 20 z "
     id="path4" />
  <rect
     style="opacity:1;fill:#00E676;fill-opacity:1;fill-rule:nonzero;stroke:none;stroke-width:4;stroke-miterlimit:4;stroke-dasharray:none;stroke-opacity:1"
     id="rect4151"
     width="4"
     height="58"
     x="-2"
     y="5.053823947906494"
     transform="matrix(0.7071067811865475,-0.7071067811865474,0.7071067811865474,0.7071067811865475,0,0)" />
</svg>

<svg xmlns="http://www.w3.org/2000/svg" fill="#00E676" viewBox="0 0 48 48"><path d="m12 2v1.514l12.486 12.486h13.514v13.516l4 4v-23.516c0-2.21-1.79-4-4-4h-2v-4h-4v4h-16v-4h-4m-3.02 4.15c-1.706.454-2.959 1.996-2.959 3.85l-.02 28c0 2.21 1.79 4 4 4h28c1.854 0 3.398-1.266 3.852-2.977l-3.852-3.852v2.828h-28v-22h8.828l-9.85-9.85m5.02 13.85v10h10v-8.828l-1.172-1.172h-8.828"/><path transform="matrix(.70711-.70711.70711.70711 0 0)" d="m-2 5.05h4v58h-4z"/></svg>
